X:376
T:French Country Dances, No. 8 or Fairy Figure
C:Michael Kelly, c. 1804
L:1/8
M:2/2
R:Reel
S:Colin Hume's website,  colinhume.com  - chords can also be printed below the stave.
Q:1/2=112
%%MIDI ratio 3 1
K:D
%%center Play ABAC x 4 plus extra A
P:A
"-"d2d2 | "D"d2d2 d2de | f2d2 d2d2 | "D"d2df edcB | "A"A2A2 d2d2 |\
"D"d2d2 d2de | f2d2 e2e2 | "A"a2a2 cdec | "D"d4 ||
P:B
"D"f>ff>f | "A/C#"e3c "E/B"d>dd>d | "A"c3A "D"f>ff>f | "A/C#"e3a "D"ed"B7/D#"dc | "E"c4 "D"f>ff>f |\
"A/C#"e3c "E/B"d>dd>d | "A"c3A "D"f>ff>f | "A"e>cd>f "A/E"e>d"E"c>B | "A"A4 ||
P:A
"-"d2d2 | "D"d2d2 d2de | f2d2 d2d2 | "D"d2df edcB | "A"A2A2 d2d2 |\
"D"d2d2 d2de | f2d2 e2e2 | "A"a2a2 cdec | "D"d4 ||
P:C
"-"fedc | "Bm"B2B2 "F#7"c2^A2 | "Bm"B2F2 "-"fedc | "Bm"B2B2 "F#7"c2^A2 | "Bm"B4 "-"fedc |
"Bm"B2B2 "F#7"c2^A2 | "Bm"B2F2 "-"fedc | "Bm"Bdeg "F#7"fedc | "Bm"B4 ||

